X:1
T:O the Deep, Deep Love of Jesus
T:O the Deep, Deep Love of Jesus
%%score ( 1 2 ) ( 3 4 )
L:1/8
M:4/4
K:G
V:1 treble nm="Piano" snm="Pno."
V:2 treble 
V:3 bass nm="Piano" snm="Pno."
V:4 bass 
V:1
 [B,E]2 (3EFG [^DF]2 E2 | F2 (3FGA G>F E2 | [DB]2 (3ABc B>A [EG]2 | A>G [^DF]2 E4 | %4
w: 1~O the _ _ deep, deep|love of _ _ Je- * sus,|vast, un- * * mea- * sured,|bound- * less, free!|
w: 2~O the _ _ deep, deep|love of _ _ Je- * sus,|spread his _ _ praise _ from|shore _ to shore!|
w: 3~O the _ _ deep, deep|love of _ _ Je- * sus,|love of _ _ ev- * ery|love _ the best!|
 [B,E]2 (3EFG [^DF]2 E2 | F2 (3FGA G>F E2 | [DB]2 (3ABc | B>A [EG]2 | A>G [^DF]2 E4 | %9
w: Rol- ling _ _ as a|migh- ty _ _ o- * cean|in its _ _|full- * ness|o- * ver me!|
w: How he _ _ loves us,|e- ver _ _ loves _ us,|chan- ges _ _|ne- * ver,|ne- * ver- more!|
w: 'Tis an _ _ o- cean|vast of _ _ bles- * sing,|'tis a _ _|ha- * ven|sweet _ of rest!|
 [DB]2 (3GAB [DA]2 [DA]2 | [B,G]2 (3EFG F2 [^DF]2 | [B,E]2 (3EFG [EA]2 [DA]2 | %12
w: Un- der- * * neath me,|all a- * * round me,|is the _ _ cur- rent|
w: How he _ _ watch- es|o'er his _ _ loved ones,|died to _ _ call them|
w: O the _ _ deep, deep|love of _ _ Je- sus,|'tis a _ _ heaven of|
 [B,G]2 (3AGA [^DB]4 | E2 (3EFG [^DF]2 E2 | F2 (3FGA G>F E2 | [DB]2 (3ABc B>A [EG]2 | %16
w: of thy _ _ love|lead- ing _ _ on- ward,|lead- ing _ _ home- * ward,|to that _ _ glo- * rious|
w: all his _ _ own;|how for _ _ them he's|in- ter- * * ce- * ding,|watch- ing _ _ o'er _ them|
w: heavens to _ _ me;|and it _ _ lifts me|up to _ _ glo- * ry,|for it _ _ lifts _ me|
 A>G [^DF]2 E4 |] %17
w: rest _ a- bove!|
w: from _ the throne!|
w: up _ to thee!|
V:2
 x2 E2 x2 E2 | E2 ^D2 E2 E2 | x2 D2 F2 x2 | E2 x2 E4 | x2 E2 x2 E2 | E2 ^D2 E2 E2 | x2 D2 | F2 x2 | %8
 E2 x2 E4 | x2 D2 x4 | x2 E2 E2 x2 | x2 B,2 x4 | x2 E2 x4 | E2 E2 x2 E2 | E2 ^D2 E2 E2 | %15
 x2 D2 D2 x2 | E2 x2 E4 |] %17
V:3
 [E,G,]2 [G,,B,]2 [B,,B,]2 [C,G,]2 | [A,,C]2 [B,,B,]2 B,>A, [E,G,]2 | %2
 [G,,G,]2 (3F,G,A, [^D,B,]2 [E,B,]2 | C>B, [B,,A,]2 [E,G,]4 | [E,G,]2 [G,,B,]2 [B,,B,]2 [C,G,]2 | %5
 [A,,C]2 [B,,B,]2 B,>A, [E,G,]2 | [G,,G,]2 (3F,G,A, | [^D,B,]2 [E,B,]2 | C>B, [B,,A,]2 [E,G,]4 | %9
 [G,,G,]2 [B,,G,]2 [D,G,]2 [D,F,]2 | [E,G,]2 [G,,B,]2 [A,,C]2 [B,,B,]2 | %11
 [E,G,]2 [D,G,]2 [C,G,]2 [D,F,]2 | G,2 [C,E,]2 (F,2 A,2) | [C,G,]2 [G,,B,]2 [B,,B,]2 [C,G,]2 | %14
 [A,,C]2 [B,,B,]2 B,>A, [E,G,]2 | [G,,G,]2 (3F,G,A, G,>F, [C,E,]2 | C>B, [B,,A,]2 [E,G,]4 |] %17
V:4
 x8 | x4 E,2 x2 | x2 D,2 x4 | A,,2 x6 | x8 | x4 E,2 x2 | x2 D,2 | x4 | A,,2 x6 | x8 | x8 | x8 | %12
 E,D, x2 B,,4 | x8 | x4 E,2 x2 | x2 D,2 G,,2 x2 | A,,2 x6 |] %17

